images/icons/google-docs.svg

<?xml version="1.0" encoding="UTF-8" standalone="no"?>
<!DOCTYPE svg PUBLIC "-//W3C//DTD SVG 1.1//EN" "http://www.w3.org/Graphics/SVG/1.1/DTD/svg11.dtd">
<svg width="100%" height="100%" viewBox="0 0 24 24" version="1.1" xmlns="http://www.w3.org/2000/svg" xmlns:xlink="http://www.w3.org/1999/xlink" xml:space="preserve" xmlns:serif="http://www.serif.com/" style="fill-rule:evenodd;clip-rule:evenodd;stroke-linejoin:round;stroke-miterlimit:2;">
    <path d="M21.333,0l-18.666,0c-1.467,0 -2.667,1.2 -2.667,2.667l-0,18.666c-0,1.467 1.2,2.667 2.667,2.667l18.666,-0c1.467,-0 2.667,-1.2 2.667,-2.667l-0,-18.666c-0,-1.467 -1.2,-2.667 -2.667,-2.667Zm-2.653,8l-13.347,-0l0,-2.667l13.347,0l-0,2.667Zm-0,5.333l-13.347,0l0,-2.666l13.347,-0l-0,2.666Zm-4,5.334l-9.347,-0l0,-2.667l9.347,-0l-0,2.667Z" style="fill:#fff;"/>
</svg>

<svg viewBox="0 0 24 24" xmlns="http://www.w3.org/2000/svg" xml:space="preserve" fill-rule="evenodd">
  <path d="M21.333 0H2.667A2.675 2.675 0 0 0 0 2.667v18.666C0 22.8 1.2 24 2.667 24h18.666C22.8 24 24 22.8 24 21.333V2.667C24 1.2 22.8 0 21.333 0ZM18.68 8H5.333V5.333H18.68V8Zm0 5.333H5.333v-2.666H18.68v2.666Zm-4 5.334H5.333V16h9.347v2.667Z" fill="#fff" />
</svg>
